app/assets/images/heroicons/solid/arrow-turn-up-right.svg

<svg width="24" height="24" viewBox="0 0 24 24" fill="none" xmlns="http://www.w3.org/2000/svg">
<path fill-rule="evenodd" clip-rule="evenodd" d="M3.73927 20.25C4.15349 20.25 4.48928 19.9142 4.48928 19.5L4.48928 8.99902L18.4282 8.99902L15.9585 11.469C15.6656 11.7619 15.6657 12.2368 15.9586 12.5297C16.2515 12.8226 16.7264 12.8226 17.0193 12.5297L20.7691 8.77932C21.062 8.48642 21.062 8.01156 20.7691 7.71866L17.0193 3.9683C16.7264 3.67538 16.2515 3.67535 15.9586 3.96825C15.6657 4.26114 15.6656 4.73603 15.9585 5.02896L18.4282 7.49895L3.73927 7.49895C3.32505 7.49895 2.98926 7.83476 2.98926 8.24899L2.98926 19.5C2.98926 19.9142 3.32505 20.25 3.73927 20.25Z" fill="black"/>
</svg>

<svg xmlns="http://www.w3.org/2000/svg" viewBox="0 0 24 24" fill="currentColor" aria-hidden="true" data-slot="icon">
  <path fill-rule="evenodd" d="M3.74 20.25a.75.75 0 0 0 .75-.75V8.999h13.938l-2.47 2.47a.75.75 0 0 0 1.061 1.06l3.75-3.75a.75.75 0 0 0 0-1.06l-3.75-3.75a.75.75 0 0 0-1.06 1.06l2.47 2.47H3.738a.75.75 0 0 0-.75.75V19.5c0 .414.336.75.75.75Z" clip-rule="evenodd"/>
</svg>
